X: 1621
T: Joe Yates Skillet Pot
B: australian traditional tunes wiki
M:4/4
L:1/8
R: Set Tune
Q: 1/4=100
K:G
V:1 
DC|"D"A,D DEF2DF| FG AB"C"c2AB|"D"dB "C"cA "G"GB AG|"D"AF DB,"C"C2DC|
"D"A,D DEF2DF| FG AB"C"c2AB|"D"dB "C"cA "G"GB AF|"D"D6AB||
"D"d2dB"C"c2AB|"G"dB GB"D"A2 (3ABc|"D"dB "C"cA "G"GB AG|"D"AF DB, "C"C4|
"D"A,D DEF2DE|"D"FG AB"C"c2AB|"D"dB "C"cA "G"GB AF|"D"D6z2|| "G"G6"FIN" z2||
% abcbook-tune_id 6342d53a6b154e5741dbd2d6


% abcbook-boost 0
% abcbook-tablature 
% abcbook-transpose 
% abcbook-lastupdated 1665324374522
% abcbook-soundfonts 
% abcbook-repeats 1
% NFF Book 2006

